build/img/icon-gulp.svg

<svg width="30" height="69" viewBox="0 0 30 69" fill="none" xmlns="http://www.w3.org/2000/svg">
  <path d="M23.1137 66.8966L23.7495 55.8725L25.5052 52.7541C25.5052 52.7541 21.5093 54.4549 14.8196 54.4549C8.12967 54.4549 4.19436 52.7855 4.19436 52.7855L6.16196 56.1872L6.85801 66.8966C6.85801 68.0447 10.4969 68.9754 14.9859 68.9754C19.4747 68.9754 23.1137 68.0447 23.1137 66.8966V66.8966ZM21.108 15.4154L22.4426 9.92651L29.8332 1.83474L27.8853 0.108398L20.0609 8.72816L18.5113 15.286C17.345 15.2453 16.1782 15.2251 15.0113 15.2254C6.77072 15.2254 0.090332 16.2026 0.090332 17.4078C0.090332 18.6131 6.77072 19.5902 15.0113 19.5902C23.2518 19.5902 29.9321 18.6131 29.9321 17.4078C29.9321 16.5203 26.309 15.7564 21.108 15.4154" fill="#D34A47"/>
  <path d="M20.3318 18.4892C20.3318 18.4892 20.0427 18.5566 19.1925 18.5604C18.342 18.5641 17.7382 18.5547 17.4977 18.3267C17.433 18.2655 17.3976 18.144 17.398 18.0617C17.3987 17.9051 17.5055 17.8128 17.6416 17.755L17.7704 17.9652C17.7144 17.9853 17.6824 18.009 17.6823 18.0344C17.6818 18.1534 18.5519 18.2348 19.2173 18.226C19.8829 18.2175 20.6871 18.1604 20.6878 18.0432C20.6878 18.0077 20.627 17.9743 20.5212 17.948L20.6494 17.7393C20.8219 17.795 20.9724 17.9026 20.9721 18.0889C20.9704 18.4056 20.5831 18.4538 20.3318 18.4892" fill="white"/>
  <path d="M29.8184 1.85039C30.0043 1.62705 29.7222 1.05579 29.1886 0.574618C28.6547 0.0936907 28.0712 -0.11526 27.885 0.108076C27.6991 0.331412 27.9812 0.902673 28.5151 1.3836C29.0488 1.86465 29.6325 2.07384 29.8184 1.85039ZM22.758 39.9687C22.5828 38.2152 26.4441 35.6756 25.4531 35.5943C23.3199 35.7212 22.2582 38.1956 21.1849 40.7871C20.7916 41.7369 19.4457 45.7869 18.563 45.2883C17.6806 44.79 19.7071 41.4596 20.2751 39.4817C19.6197 39.9818 17.2162 41.9249 16.5967 40.1052C15.6009 40.9852 13.4729 41.462 13.7129 39.1503C13.1831 40.1267 11.9941 41.49 10.5668 40.9235C8.69248 40.1798 11.6529 33.9672 12.389 34.2806C13.1253 34.5939 12.2405 36.0092 12.0087 36.5587C11.4991 37.7682 10.9103 39.2886 11.3036 39.5998C11.9774 40.1331 13.811 37.5826 13.8518 37.5266C14.1947 37.0551 15.1717 33.971 15.9591 34.3251C16.7466 34.6793 13.9951 38.7514 15.0238 39.5595C15.2313 39.7226 16.0803 39.4589 16.5967 38.8775C16.9309 38.5015 16.8159 37.6685 17.9298 34.9046C19.0436 32.1408 20.0363 28.6988 20.8002 28.961C21.5641 29.2232 20.9345 30.9897 20.6604 31.6483C19.3745 34.7391 17.1508 39.8455 18.1995 39.4589C19.2482 39.0725 19.7943 39.0498 20.8212 37.7994C21.8481 36.549 21.8008 34.4893 22.4852 34.5331C23.1699 34.577 23.055 35.2374 22.889 35.7402C23.5626 34.9381 26.0823 33.2487 26.6906 34.9219C27.4111 36.9028 23.0857 39.7641 24.1641 39.6181C25.2157 39.4759 26.9192 38.3532 27.6465 37.3325L29.6486 18.6042C29.6486 18.6042 27.634 20.339 14.8173 20.339C2.00049 20.339 0.194336 18.6403 0.194336 18.6403L1.89879 35.7348C2.80351 33.0592 4.95188 27.6475 8.3383 27.8291C9.87873 27.9118 11.9351 30.9981 10.1736 31.1027C9.42801 31.1469 9.35233 29.5622 8.4694 29.3295C7.83228 29.1615 6.94526 29.7004 6.37199 30.2844C5.22873 31.4486 2.76988 36.042 3.09477 38.332C3.5087 41.2516 6.9667 37.3175 7.5518 36.1495C7.96385 35.3267 8.24223 32.8891 9.14343 33.1448C10.0447 33.4006 9.06481 35.9163 8.41152 38.1405C7.67763 40.638 7.29182 43.2726 6.37199 42.9695C5.45204 42.6667 6.95053 39.4425 6.89628 38.8775C6.03164 39.7076 4.43872 41.8091 2.40082 40.7689L3.45937 51.3845C3.45937 51.3845 6.27275 53.6974 14.7478 53.6974C23.2229 53.6974 26.1404 51.4206 26.1404 51.4206L27.4548 39.1253C26.3794 40.2149 22.9759 42.1498 22.758 39.9687" fill="#D34A47"/>
</svg>

<svg width="30" height="69" fill="none" xmlns="http://www.w3.org/2000/svg"><path d="M23.114 66.897l.636-11.025 1.755-3.118s-3.996 1.7-10.685 1.7c-6.69 0-10.626-1.669-10.626-1.669l1.968 3.402.696 10.71c0 1.148 3.639 2.078 8.128 2.078 4.489 0 8.128-.93 8.128-2.078zm-2.006-51.482l1.335-5.488 7.39-8.092L27.885.108l-7.824 8.62-1.55 6.558a99.62 99.62 0 00-3.5-.06c-8.24 0-14.92.977-14.92 2.182s6.68 2.182 14.92 2.182 14.921-.977 14.921-2.182c0-.888-3.623-1.652-8.824-1.993" fill="#D34A47"/><path d="M20.332 18.49s-.29.067-1.14.07c-.85.004-1.454-.005-1.694-.233a.404.404 0 01-.1-.265c0-.157.108-.25.244-.307l.128.21c-.056.02-.088.044-.088.07 0 .118.87.2 1.535.191.666-.008 1.47-.066 1.47-.183 0-.035-.06-.069-.166-.095l.128-.209c.173.056.323.164.323.35-.002.317-.389.365-.64.4" fill="#fff"/><path d="M29.818 1.85c.186-.223-.096-.794-.63-1.275-.533-.481-1.117-.69-1.303-.467-.186.223.096.795.63 1.276.534.48 1.117.69 1.303.466zm-7.06 38.119c-.175-1.754 3.686-4.293 2.695-4.375-2.133.127-3.195 2.602-4.268 5.193-.393.95-1.74 5-2.622 4.501-.882-.498 1.144-3.828 1.712-5.806-.655.5-3.059 2.443-3.678.623-.996.88-3.124 1.357-2.884-.955-.53.977-1.719 2.34-3.146 1.773-1.875-.743 1.086-6.956 1.822-6.642.736.313-.148 1.728-.38 2.278-.51 1.21-1.099 2.73-.705 3.04.673.534 2.507-2.016 2.548-2.072.343-.472 1.32-3.556 2.107-3.202.788.354-1.964 4.426-.935 5.234.207.164 1.056-.1 1.573-.681.334-.377.219-1.21 1.333-3.973 1.114-2.764 2.106-6.206 2.87-5.944.764.262.134 2.029-.14 2.687-1.285 3.091-3.51 8.198-2.46 7.81 1.048-.386 1.594-.408 2.621-1.659 1.027-1.25.98-3.31 1.664-3.266.685.044.57.704.404 1.207.674-.802 3.193-2.491 3.802-.818.72 1.98-3.605 4.842-2.527 4.696 1.052-.142 2.755-1.265 3.482-2.285l2.003-18.729s-2.015 1.735-14.832 1.735S.194 18.64.194 18.64L1.9 35.735c.905-2.676 3.053-8.087 6.44-7.906 1.54.083 3.596 3.17 1.835 3.274-.746.044-.822-1.54-1.705-1.774-.637-.168-1.524.371-2.097.955-1.143 1.165-3.602 5.758-3.277 8.048.414 2.92 3.872-1.014 4.457-2.182.412-.823.69-3.26 1.591-3.005.902.256-.078 2.771-.731 4.995-.734 2.498-1.12 5.133-2.04 4.83-.92-.303.579-3.527.524-4.093-.864.83-2.457 2.932-4.495 1.892L3.46 51.385s2.814 2.312 11.289 2.312 11.392-2.276 11.392-2.276l1.315-12.296c-1.076 1.09-4.48 3.025-4.697.844" fill="#D34A47"/></svg>
